assets/images/Location/metro.svg

<svg width="40" height="40" viewBox="0 0 40 40" fill="none" xmlns="http://www.w3.org/2000/svg">
<path d="M25.0481 0C27.0978 0 29.0831 0.717423 30.6604 2.02775C32.1964 3.3038 33.2516 5.06408 33.655 7.01769L33.6863 7.1765L36.5122 22.2634C36.8101 23.8278 36.6755 25.4439 36.123 26.9373C35.5082 28.5991 34.4019 30.0386 32.9453 31.0607L32.8078 31.1552L35.9498 34.3049C36.1764 34.5417 36.3018 34.8578 36.2989 35.1858C36.296 35.5153 36.164 35.8307 35.9312 36.0637C35.6986 36.2966 35.384 36.4286 35.0551 36.4315C34.753 36.4342 34.4611 36.3276 34.2322 36.1329L34.1764 36.0824L30.3992 32.3013C29.642 32.5322 28.8577 32.6595 28.0705 32.6804L27.8736 32.6834H12.124C11.3351 32.6791 10.5502 32.5687 9.79027 32.3548L9.60083 32.2992L5.81294 36.091C5.69649 36.2127 5.55677 36.3096 5.40234 36.376C5.24915 36.4419 5.08436 36.4765 4.91856 36.4781C4.75194 36.4794 4.58669 36.4476 4.43246 36.3845C4.27824 36.3213 4.13814 36.228 4.02019 36.1099C3.90233 35.992 3.80916 35.8516 3.74608 35.6973C3.68293 35.5428 3.65116 35.3772 3.6526 35.2103C3.65405 35.0434 3.68869 34.8783 3.75451 34.725C3.80988 34.5959 3.88637 34.4773 3.98069 34.3738L4.03939 34.3136L7.19444 31.1554C5.66921 30.1289 4.51191 28.6513 3.87748 26.9375C3.34438 25.4974 3.19997 23.9431 3.45761 22.4295L3.48789 22.2615L6.31339 7.17657C6.69135 5.15988 7.76139 3.33882 9.33863 2.02832C10.8741 0.752478 12.7962 0.0386916 14.7881 0.00152824L14.9497 0H25.0481ZM32.5019 14.4762C29.1209 17.701 24.6416 19.4848 19.9999 19.4848C15.3582 19.4848 10.879 17.7011 7.49815 14.4764L5.95294 22.7257L5.92503 22.8861C5.78734 23.7431 5.82836 24.6199 6.04618 25.4612C6.27762 26.3552 6.70304 27.1871 7.29213 27.8978C7.88129 28.6086 8.61971 29.1807 9.45483 29.5734C10.2899 29.9662 11.2014 30.17 12.1242 30.17H27.8755L28.0381 30.1681C28.9044 30.1462 29.7578 29.9443 30.5436 29.5746C31.3783 29.1817 32.1161 28.6092 32.704 27.8979C33.2951 27.1896 33.7218 26.3571 33.9535 25.4621C34.1852 24.5676 34.2163 23.6328 34.0447 22.7247L32.5019 14.4762ZM12.829 22.1148C13.1734 22.1806 13.491 22.3438 13.744 22.5844C13.9066 22.7662 14.038 22.9735 14.1324 23.198C14.2525 23.478 14.3 23.7769 14.2727 24.074C14.2455 24.3707 14.1446 24.6561 13.9791 24.9047C13.8136 25.1532 13.5886 25.3571 13.3247 25.498C13.0604 25.6389 12.7652 25.7128 12.4652 25.7128C12.1652 25.7128 11.8699 25.6389 11.6059 25.4982C11.3417 25.3571 11.1167 25.1532 10.9512 24.9047C10.7856 24.6561 10.6847 24.3707 10.6576 24.0738C10.6303 23.777 10.6778 23.4782 10.7955 23.204C10.891 22.9463 11.0139 22.7544 11.1736 22.5958C11.3337 22.4371 11.5268 22.3151 11.7396 22.2388C12.1125 22.0848 12.4769 22.0475 12.829 22.1148ZM27.5346 22.0811C28.0097 22.0811 28.468 22.2569 28.8229 22.5743C28.9812 22.7564 29.1092 22.9634 29.2018 23.1871C29.3459 23.5266 29.385 23.8932 29.3173 24.2478C29.2511 24.5948 29.0853 24.9145 28.8407 25.167C28.6559 25.3324 28.4454 25.466 28.2177 25.5624C27.992 25.6628 27.7646 25.7112 27.5346 25.7112C27.3046 25.7112 27.0773 25.6628 26.867 25.5691C26.622 25.4659 26.4121 25.3324 26.2283 25.1668C25.9837 24.9143 25.818 24.5947 25.7518 24.2476C25.6841 23.8933 25.7232 23.5267 25.8641 23.195C25.9601 22.963 26.0882 22.7559 26.2468 22.5737C26.6016 22.2567 27.0596 22.0811 27.5346 22.0811ZM25.0524 2.5134H14.9516L14.81 2.51499C13.3954 2.54691 12.0313 3.05617 10.9401 3.96226C9.8127 4.89844 9.0474 6.19937 8.77668 7.64039L8.07138 11.4264L8.2177 11.5973C9.69266 13.2959 11.5165 14.6554 13.5643 15.583C15.5869 16.4993 17.7815 16.9732 20.0018 16.9732C22.2219 16.9732 24.4165 16.4993 26.4392 15.583C28.5553 14.6244 30.4323 13.2047 31.9324 11.4261L31.2231 7.64068L31.1954 7.50171C30.9026 6.11653 30.1514 4.86936 29.0612 3.96359C27.9345 3.0274 26.5166 2.5145 25.0524 2.5134Z" fill="#010107"/>
</svg>

<svg xmlns="http://www.w3.org/2000/svg" width="40" height="40" fill="none" viewBox="0 0 40 40"><path fill="#010107" d="M25.048 0c2.05 0 4.035.717 5.612 2.028a8.801 8.801 0 0 1 2.995 4.99l.031.159 2.826 15.086a8.752 8.752 0 0 1-3.567 8.798l-.137.094 3.142 3.15a1.258 1.258 0 0 1-.895 2.127 1.253 1.253 0 0 1-.823-.3l-.056-.05-3.777-3.78a8.788 8.788 0 0 1-2.329.378l-.196.003h-15.75a8.79 8.79 0 0 1-2.334-.328l-.19-.056-3.787 3.792a1.254 1.254 0 0 1-2.058-1.366c.055-.13.131-.248.226-.351l.058-.06 3.155-3.159a8.742 8.742 0 0 1-3.736-8.726l.03-.167L6.313 7.177A8.8 8.8 0 0 1 9.34 2.028 8.783 8.783 0 0 1 14.79.002L14.95 0h10.1zm7.454 14.476a18.112 18.112 0 0 1-25.004 0l-1.545 8.25-.028.16a6.292 6.292 0 0 0 3.53 6.687 6.272 6.272 0 0 0 2.67.597h15.75l.163-.002a6.257 6.257 0 0 0 4.666-2.27 6.272 6.272 0 0 0 1.34-5.173l-1.542-8.249zm-19.673 7.639c.344.066.662.229.915.47a2.2 2.2 0 0 1 .388.613 1.797 1.797 0 0 1-.807 2.3 1.827 1.827 0 0 1-2.374-.593 1.792 1.792 0 0 1-.155-1.701 1.544 1.544 0 0 1 .944-.965 1.881 1.881 0 0 1 1.089-.124zm14.706-.034c.475 0 .933.176 1.288.493.158.182.286.39.379.613.144.34.183.706.115 1.06a1.808 1.808 0 0 1-.476.92 2.25 2.25 0 0 1-.623.395 1.64 1.64 0 0 1-1.35.007 2.239 2.239 0 0 1-.64-.402 1.82 1.82 0 0 1-.364-1.972 2.25 2.25 0 0 1 .383-.621 1.933 1.933 0 0 1 1.288-.493zM25.052 2.513h-10.1l-.142.002A6.29 6.29 0 0 0 8.777 7.64l-.706 3.786.147.171a15.614 15.614 0 0 0 11.784 5.376 15.6 15.6 0 0 0 11.93-5.547l-.709-3.785-.028-.14a6.28 6.28 0 0 0-6.143-4.988z"/></svg>
